X:1
T:Grizzly Dome, CMD
T:Grizzly Dome, CMD
T:John Wesley Ewing, 1881
T:Public Domain Courtesy of the Cyber Hymnal™
C:John Wesley Ewing, 1881
Z:Public Domain
Z:Courtesy of the Cyber Hymnal™
%%score ( 1 2 ) 3
L:1/8
Q:1/4=105
M:4/4
K:Bb
V:1 treble 
V:2 treble 
V:3 bass 
V:1
 ([B,D][CE]) | [DF]2 [DB]2 [Fd]3 [FB] | [Ec]2 [EB]2 [EG]3 [EG] | [DF]3 [EG] [DF]2 [B,D]2 | %4
 [A,C]6 ([B,D][CE]) | [DF]2 [DB]2 [Fd]3 [FB] | [Ec]2 [EB]2 [EG]3 [EG] | [DF]2 [DB]2 [Ec]3 [DB] | %8
 [DB]6 z2 | [DF]2 [B,D][CE] [DF]2 [DB]2 | [Fd]2 [DB]2 [DF]3 [DF] | [EG]2 [EB]2 (cB) [EG]2 | %12
 [DF]6 ([B,D][CE]) | [DF]2 [DB]2 [Fd]3 [FB] | [Ec]2 [EB]2 [EG]3 [EG] | [DF]2 [DB]2 [Ec]3 [DB] | %16
 [DB]6 |] %17
V:2
 x2 | x8 | x8 | x8 | x8 | x8 | x8 | x8 | x8 | x8 | x8 | x4 E2 x2 | x8 | x8 | x8 | x8 | x6 |] %17
V:3
 [B,,F,]2 | [B,,B,]2 [B,,F,]2 [B,,B,]3 [D,F,] | [E,G,]2 [E,G,]2 [E,B,]3 [E,B,] | %3
 [B,,B,]3 [B,,B,] [B,,B,]2 [B,,F,]2 | [F,,F,]6 [B,,F,]2 | [B,,B,]2 [B,,F,]2 [B,,B,]3 [D,F,] | %6
 [E,G,]2 [E,G,]2 [E,B,]3 [E,B,] | [F,B,]2 [F,B,]2 [F,A,]3 [B,,F,] | [B,,F,]6 z2 | %9
 [B,,B,]2 [B,,F,][B,,F,] [B,,B,]2 [B,,B,]2 | [B,,B,]2 [B,,F,]2 [B,,B,]3 [B,,B,] | %11
 [E,B,]2 [E,G,]2 [E,G,]2 [E,B,]2 | [B,,B,]6 [B,,F,]2 | [B,,B,]2 [B,,F,]2 [B,,B,]3 [D,F,] | %14
 [E,G,]2 [E,G,]2 [E,B,]3 [E,B,] | [F,B,]2 [F,B,]2 [F,A,]3 [B,,F,] | [B,,F,]6 |] %17

